X: 1
T:Mrzschlager - schottisch/schottische/scottish
N:gefunden von Sepp Pichler in einer alten Handschrift
A:Mrztal, Steiermark
Z:abc transcription Simon Wascher
N:please mail errors to: simon.wascher@chello.at
M:2/4
L:1/16
K:G
DEFG ABcA|B2B2G4|A2A2 GFED|G2B2G4|
DEFG ABcA|B2B2G4|A2A2 GFED|G8:|
|:A2AB c2A2|B2d2 cBAG|A2AB c2A2|d2B2G4|
A2AB c2A2|B2d2 cBAG|A2AB c2A2|GFEDG4:|
